client/public/img/misc/player_icon.svg

<?xml version="1.0" encoding="UTF-8" standalone="no"?>
<!-- Created with Inkscape (http://www.inkscape.org/) -->

<svg
   width="20"
   height="20"
   viewBox="0 0 5.2916666 5.2916668"
   version="1.1"
   id="svg5"
   xmlns="http://www.w3.org/2000/svg"
   xmlns:svg="http://www.w3.org/2000/svg">
  <defs
     id="defs2" />
  <g
     id="g826"
     transform="matrix(0.20408163,0,0,0.20408163,-0.10799297,0.05399685)">
    <path
       id="circle1956"
       style="fill:#ffffff;fill-opacity:1;stroke-width:5.625;stroke-linecap:round"
       d="M 51,0 A 45.000001,45.000001 0 0 0 6,45 45.000001,45.000001 0 0 0 9.9453125,63.369141 C 12.129715,62.487636 14.510618,62 17,62 c 10.446023,0 19.001953,8.555929 19.001953,19.001953 0,2.07627 -0.339269,4.076647 -0.962891,5.951172 A 45.000001,45.000001 0 0 0 51,90 45.000001,45.000001 0 0 0 66.994141,87.044922 c -0.643371,-1.901036 -0.992188,-3.932625 -0.992188,-6.042969 0,-10.446024 8.553979,-19.001953 19,-19.001953 2.48616,0 4.86479,0.485894 7.046875,1.365234 A 45.000001,45.000001 0 0 0 96,45 45.000001,45.000001 0 0 0 51,0 Z M 17,70.001953 c -1.056556,0 -2.073423,0.148133 -3.037109,0.419922 A 45.000001,45.000001 0 0 0 27.732422,83.433594 C 27.9056,82.652067 28,81.839393 28,81.001953 c 0,-6.122506 -4.877492,-11 -11,-11 z m 68.001953,0 c -6.122506,0 -10.998047,4.877494 -10.998047,11 0,0.854272 0.09733,1.682621 0.277344,2.478516 A 45.000001,45.000001 0 0 0 88.113281,70.443359 C 87.128276,70.15824 86.085044,70.001953 85.001953,70.001953 Z"
       transform="scale(0.26458334)" />
    <path
       style="color:#000000;fill:#ffffff;stroke-width:2.11667;stroke-linecap:round;-inkscape-stroke:none"
       d="m 26.458333,21.431248 a 3.9687514,3.96875 0 0 1 -3.968751,3.96875 3.9687514,3.96875 0 0 1 -3.968751,-3.96875 3.9687514,3.96875 0 0 1 3.968751,-3.96875 3.9687514,3.96875 0 0 1 3.968751,3.96875 z"
       id="path1679" />
    <path
       style="color:#000000;fill:#ffffff;stroke-width:2.11667;stroke-linecap:round;-inkscape-stroke:none"
       d="m 8.4666681,21.431248 a 3.9687514,3.96875 0 0 1 -3.9687514,3.96875 3.9687514,3.96875 0 0 1 -3.96875143,-3.96875 3.9687514,3.96875 0 0 1 3.96875143,-3.96875 3.9687514,3.96875 0 0 1 3.9687514,3.96875 z"
       id="path1688" />
  </g>
</svg>

<svg xmlns="http://www.w3.org/2000/svg" width="20" height="20" viewBox="0 0 5.292 5.292"><path d="M51 0A45 45 0 0 0 6 45a45 45 0 0 0 3.945 18.37A18.8 18.8 0 0 1 17 62c10.446 0 19.002 8.556 19.002 19.002 0 2.076-.34 4.077-.963 5.951A45 45 0 0 0 51 90a45 45 0 0 0 15.994-2.955 18.8 18.8 0 0 1-.992-6.043c0-10.446 8.554-19.002 19-19.002 2.486 0 4.865.486 7.047 1.365A45 45 0 0 0 96 45 45 45 0 0 0 51 0M17 70.002c-1.057 0-2.073.148-3.037.42a45 45 0 0 0 13.77 13.012c.173-.782.267-1.595.267-2.432 0-6.123-4.877-11-11-11m68.002 0a10.94 10.94 0 0 0-10.998 11c0 .854.097 1.683.277 2.478a45 45 0 0 0 13.832-13.037 11.2 11.2 0 0 0-3.111-.441" style="fill:#fff;fill-opacity:1;stroke-width:5.625;stroke-linecap:round" transform="translate(-.108 .054)scale(.054)"/><path d="M26.458 21.431A3.97 3.97 0 0 1 22.49 25.4a3.97 3.97 0 0 1-3.97-3.969 3.97 3.97 0 0 1 3.97-3.969 3.97 3.97 0 0 1 3.968 3.97m-17.991-.001a3.97 3.97 0 0 1-3.97 3.969A3.97 3.97 0 0 1 .53 21.431a3.97 3.97 0 0 1 3.969-3.969 3.97 3.97 0 0 1 3.969 3.97" style="color:#000;fill:#fff;stroke-width:2.11667;stroke-linecap:round;-inkscape-stroke:none" transform="translate(-.108 .054)scale(.20408)"/></svg>
